X: 21261
T: DALRY HOUSE -- Strathspey
R: strathspey
B: K\"ohler's Violin Repository, v.2, 1885 p.126 #1
F: http://www.archive.org/details/klersviolinrepos02rugg
Z: 2012 John Chambers <jc:trillian.mit.edu>
M: C|
L: 1/8
K: D
[|\
v(D>F)A2 ~(F>G)A2 | (B/c/d) (A>F) G<(E"_>"E>F) | (D>F)A2 ~(F>G)A2 | (B/c/d) (c>B) A<FF>d | (D>F)A2
~(F>G)A2  | (B/c/d) (A<F) G<(E"_>"E>F) | (D>F)A2 ~(F>G)A2 | (B/c/d) (c>B) A<FF>A || vd<f(e<c) dBA2 |
(B/c/d) (A>F) G<EE>c | d<f(e<c) dBA2 | (B/c/d) (c>B) A<FF>A | (3dfd (3cec
(3BdB (3AdA | (3GBG (3FdF G<(E"_>"E>F) | (D/E/F/G/) A2 ~(F>G)A2 | (B/c/d) (c>B) "_Segue Reel."A<FF>d "_D.C."|]

%%sep 2 1 500

